X:954
T:Wild Irishman
S:Bruce & Emmett's Drummers and Fifers Guide (1862), p. 95
M:9/8
L:1/8
Q:1/8=300
K:Em
%%MIDI program 72
%%MIDI transpose 8
%%MIDI ratio 3 1
B2e e2f gfe|B2e e2f gfe|b2(B b2)(B b2)A|g2a g2f edc|B2e e2f gfe|
B2e e2f gfe|b2(B b2)(B b2)A|g2f g2a b2z||b2a g2f g2b|a2b a2f d3|
g2f e2d efg|f2g f2d B3|e2d e2f g2a|b2(B b2)(B b3)|B2e e2f gfe|B2A G2F E3||

